#define application_icon_width 32
#define application_icon_height 32
static unsigned char application_icon_bits[] = {
   0x00, 0x00, 0x00, 0xf0, 0x00, 0x00, 0x00, 0x88, 0x00, 0x00, 0x00, 0x84,
   0x00, 0x00, 0x00, 0x9e, 0x00, 0x00, 0x00, 0x5d, 0x00, 0x00, 0x80, 0x3c,
   0x00, 0x00, 0xc0, 0x13, 0x00, 0x00, 0xa0, 0x0b, 0x00, 0x00, 0x90, 0x07,
   0x00, 0x00, 0x78, 0x02, 0x00, 0x00, 0x74, 0x01, 0x00, 0x00, 0xf2, 0x00,
   0x00, 0x00, 0x4f, 0x00, 0x00, 0x80, 0x2e, 0x00, 0x00, 0x40, 0x1e, 0x00,
   0x04, 0xe0, 0x09, 0x00, 0x0a, 0xd0, 0x05, 0x00, 0x11, 0xc8, 0x03, 0x00,
   0x3a, 0x3c, 0x01, 0x00, 0x5c, 0xba, 0x00, 0x00, 0x88, 0x79, 0x00, 0x00,
   0x90, 0x21, 0x00, 0x00, 0x60, 0x12, 0x00, 0x00, 0x60, 0x0c, 0x00, 0x00,
   0x10, 0x0c, 0x00, 0x00, 0x78, 0x13, 0x00, 0x00, 0x74, 0x23, 0x00, 0x00,
   0xf2, 0x74, 0x00, 0x00, 0x4e, 0xb8, 0x00, 0x00, 0x2e, 0x10, 0x01, 0x00,
   0x1e, 0xa0, 0x00, 0x00, 0x00, 0x40, 0x00, 0x00};
